img/logo.svg

<svg width="170" height="22" viewBox="0 0 170 22" fill="none" xmlns="http://www.w3.org/2000/svg">
<path d="M43.5494 12.3731V18.2048H53.1172V21.5989H40V0H52.9629V3.39411H43.5494V9.00982H52.1913V12.3731H43.5494Z" fill="#FDFDFD"/>
<path d="M67.786 13.8233H56.3663V10.6143H67.786V13.8233Z" fill="#FDFDFD"/>
<path d="M88.9823 0H92.7786V21.5989H89.2292V6.20196L82.6552 17.0631H82.2231L75.6491 6.17111V21.5989H72.0997V0H75.9269L82.4392 10.7994L88.9823 0Z" fill="#FDFDFD"/>
<path d="M111.778 15.3043H99.4937C99.7406 16.4563 100.296 17.3511 101.16 17.9888C102.045 18.6265 103.136 18.9453 104.432 18.9453C106.181 18.9453 107.508 18.3076 108.413 17.0323L111.16 18.6367C109.658 20.8789 107.405 22 104.401 22C101.911 22 99.8846 21.2389 98.3208 19.7167C96.7776 18.1739 96.006 16.23 96.006 13.885C96.006 11.6017 96.7674 9.67835 98.29 8.11501C99.792 6.55166 101.747 5.76999 104.154 5.76999C106.397 5.76999 108.249 6.56194 109.71 8.14586C111.171 9.72978 111.901 11.6531 111.901 13.9158C111.901 14.3273 111.86 14.7901 111.778 15.3043ZM99.4628 12.5891H108.537C108.31 11.3754 107.796 10.4395 106.994 9.78121C106.212 9.12295 105.255 8.79383 104.123 8.79383C102.889 8.79383 101.86 9.13324 101.037 9.81206C100.214 10.4909 99.6891 11.4165 99.4628 12.5891Z" fill="#FDFDFD"/>
<path d="M122.951 5.76999C124.741 5.76999 126.171 6.34596 127.241 7.4979C128.332 8.62927 128.877 10.172 128.877 12.1262V21.5989H125.544V12.4656C125.544 11.3137 125.235 10.4292 124.618 9.81206C124.001 9.19495 123.157 8.88639 122.087 8.88639C120.873 8.88639 119.916 9.26695 119.217 10.028C118.517 10.7686 118.167 11.8691 118.167 13.3296V21.5989H114.834V6.17111H118.167V8.14586C119.196 6.56194 120.791 5.76999 122.951 5.76999Z" fill="#FDFDFD"/>
<path d="M141.077 6.17111V9.38008H137.25V16.7854C137.25 17.4231 137.394 17.8859 137.682 18.1739C137.97 18.4413 138.392 18.5956 138.948 18.6367C139.524 18.6573 140.234 18.647 141.077 18.6059V21.5989C138.526 21.9074 136.695 21.6914 135.584 20.9509C134.472 20.1898 133.917 18.8013 133.917 16.7854V9.38008H131.077V6.17111H133.917V2.83871L137.25 1.85133V6.17111H141.077Z" fill="#FDFDFD"/>
<path d="M156.523 19.655C154.959 21.2183 153.035 22 150.751 22C148.468 22 146.544 21.2183 144.98 19.655C143.396 18.0711 142.603 16.1477 142.603 13.885C142.603 11.6223 143.396 9.69893 144.98 8.11501C146.544 6.55166 148.468 5.76999 150.751 5.76999C153.035 5.76999 154.959 6.55166 156.523 8.11501C158.107 9.69893 158.9 11.6223 158.9 13.885C158.9 16.1477 158.107 18.0711 156.523 19.655ZM145.937 13.885C145.937 15.2838 146.4 16.446 147.326 17.3717C148.252 18.2973 149.393 18.7602 150.751 18.7602C152.11 18.7602 153.251 18.2973 154.177 17.3717C155.103 16.446 155.566 15.2838 155.566 13.885C155.566 12.4862 155.103 11.324 154.177 10.3983C153.251 9.47265 152.11 9.00982 150.751 9.00982C149.393 9.00982 148.252 9.47265 147.326 10.3983C146.4 11.324 145.937 12.4862 145.937 13.885Z" fill="#FDFDFD"/>
<path d="M165.247 6.17111V8.76297C166.091 6.84993 167.675 5.89341 170 5.89341V9.50351C168.745 9.42122 167.634 9.72978 166.667 10.4292C165.72 11.108 165.247 12.2394 165.247 13.8233V21.5989H161.914V6.17111H165.247Z" fill="#FDFDFD"/>
<path d="M0 9.26316C0 4.14726 4.17868 0 9.33333 0H28V1.15789C28 6.2738 23.8213 10.4211 18.6667 10.4211H0V9.26316Z" fill="#FA9F42"/>
<path d="M0 18.5263C0 15.3289 2.61167 12.7368 5.83333 12.7368H7C9.57733 12.7368 11.6667 14.8105 11.6667 17.3684C11.6667 19.9264 9.57733 22 7 22H0V18.5263Z" fill="#FA9F42"/>
<path d="M16.3333 18.5263C16.3333 15.3289 18.945 12.7368 22.1667 12.7368H23.3333C25.9107 12.7368 28 14.8105 28 17.3684C28 19.9264 25.9107 22 23.3333 22H16.3333V18.5263Z" fill="#FA9F42"/>
</svg>

<svg xmlns="http://www.w3.org/2000/svg" width="170" height="22" fill="none" xmlns:v="https://vecta.io/nano"><path d="M43.549 12.373v5.832h9.568v3.394H40V0h12.963v3.394H43.55V9.01h8.642v3.363H43.55zm24.237 1.45h-11.42v-3.209h11.42v3.209zM88.982 0h3.796v21.599h-3.549V6.202l-6.574 10.861h-.432L75.649 6.171v15.428H72.1V0h3.827l6.512 10.799L88.982 0zm22.796 15.304H99.494c.247 1.152.802 2.047 1.666 2.685.885.638 1.976.956 3.272.956 1.749 0 3.076-.638 3.981-1.913l2.747 1.604c-1.502 2.242-3.755 3.363-6.759 3.363-2.49 0-4.516-.761-6.08-2.283-1.543-1.543-2.315-3.487-2.315-5.832 0-2.283.761-4.207 2.284-5.77 1.502-1.563 3.457-2.345 5.864-2.345 2.243 0 4.095.792 5.556 2.376s2.191 3.507 2.191 5.77a8.9 8.9 0 0 1-.123 1.388zm-12.315-2.715h9.074c-.227-1.214-.741-2.15-1.543-2.808-.782-.658-1.739-.987-2.871-.987-1.234 0-2.263.339-3.086 1.018s-1.348 1.604-1.574 2.777zm23.488-6.819c1.79 0 3.22.576 4.29 1.728 1.091 1.131 1.636 2.674 1.636 4.628v9.473h-3.333v-9.133c0-1.152-.309-2.036-.926-2.654s-1.461-.926-2.531-.926c-1.214 0-2.171.381-2.87 1.142-.7.741-1.05 1.841-1.05 3.302v8.269h-3.333V6.171h3.333v1.975c1.029-1.584 2.624-2.376 4.784-2.376zm18.126.401V9.38h-3.827v7.405c0 .638.144 1.101.432 1.389.288.267.71.422 1.266.463l2.129-.031v2.993c-2.551.308-4.382.093-5.493-.648-1.112-.761-1.667-2.15-1.667-4.166V9.38h-2.84V6.171h2.84V2.839l3.333-.987v4.32h3.827zm15.446 13.484c-1.564 1.563-3.488 2.345-5.772 2.345s-4.207-.782-5.771-2.345c-1.584-1.584-2.377-3.507-2.377-5.77s.793-4.186 2.377-5.77c1.564-1.563 3.488-2.345 5.771-2.345s4.208.782 5.772 2.345c1.584 1.584 2.377 3.507 2.377 5.77s-.793 4.186-2.377 5.77zm-10.586-5.77c0 1.399.463 2.561 1.389 3.487s2.067 1.389 3.425 1.389 2.5-.463 3.426-1.389 1.389-2.088 1.389-3.487-.463-2.561-1.389-3.487-2.067-1.388-3.426-1.388-2.499.463-3.425 1.388-1.389 2.088-1.389 3.487zm19.31-7.714v2.592c.844-1.913 2.428-2.87 4.753-2.87v3.61c-1.255-.082-2.366.226-3.333.926-.947.679-1.42 1.81-1.42 3.394v7.776h-3.333V6.171h3.333z" fill="#fdfdfd"/><path d="M0 9.263C0 4.147 4.179 0 9.333 0H28v1.158c0 5.116-4.179 9.263-9.333 9.263H0V9.263zm0 9.263c0-3.197 2.612-5.789 5.833-5.789H7c2.577 0 4.667 2.074 4.667 4.632S9.577 22 7 22H0v-3.474zm16.333 0c0-3.197 2.612-5.789 5.833-5.789h1.167c2.577 0 4.667 2.074 4.667 4.632S25.911 22 23.333 22h-7v-3.474z" fill="#fa9f42"/></svg>
